!!!COM: Johanna Kinkel
!!!CNT: Deutsch
!!!TXO: Deutsch
!!!OTL: Trennung
!!!LYR: Geibel
!!!OPR: 6 Geditche von E. Geibel
!!!OPS: Op. 8
!!!ONM: No. 5
!!!ENC: Ben Fuhrman
!!!YOR: Johanna Kinkel: Lieder, volume 1 Poetry by Geibel and Goethe
!!!YOR: Bryn Mawr, Fildegard Publishing CO, 2000
!!!ODT: 1838
!!NB: Only vocal melody encoded.
!!NB: First instance of melodic material only encoded.
!!created: 2/23/10 1:55PM
!!proofed and posted: 2/23/10 1:55PM
**kern	**silbe
*clef G2	*
*k[b-e-a-d-]	*
*M4/4	*
*MM[Adagio]	*
=1	=1
{4f	{In
8f	mei-
8g	-nem
4a-	Gar-
8a-	-ten
8a-	die
=2	=2
4b-	Nel
(ccq	|
b-q	|
8a-)	|
8b-	|
4cc}	-ken}
4r	.
=3	=3
{4ddn	{mit
8ddn	ih-
8ddn	-rem
4ddn	Pur-
4g	-pur-
=4	=4
2cc}	-stern}
2r	.
=5	=5
{(4cc	{mu2s-
dd-q	|
ccq	|
8b-)	-sen
8cc	nun
4dd-	al-
8dd-	-le
8cc	ver-
=6	=6
(4b-	-wel-
ccq	|
b-q	|
8a-	|
8b-)	|
4cc}	-ken,}
4r	.
=7	=7
2r	.
4r	.
8r	.
{8g	{denn
=8	=8
2.cc	Du
4en	bist
=9	=9
2f}	fern.}
2r	.
==	==
*-	*-
